assets/app-5ab68342.svg

<svg width="64" height="64" viewBox="0 0 64 64" fill="none" xmlns="http://www.w3.org/2000/svg">
    <path d="M16 18C16 16.8954 16.8954 16 18 16H22C23.1046 16 24 16.8954 24 18V22C24 23.1046 23.1046 24 22 24H18C16.8954 24 16 23.1046 16 22V18Z" fill="#1976D2"/>
    <path d="M16 30C16 28.8954 16.8954 28 18 28H22C23.1046 28 24 28.8954 24 30V34C24 35.1046 23.1046 36 22 36H18C16.8954 36 16 35.1046 16 34V30Z" fill="#1976D2"/>
    <path d="M18 40C16.8954 40 16 40.8954 16 42V46C16 47.1046 16.8954 48 18 48H22C23.1046 48 24 47.1046 24 46V42C24 40.8954 23.1046 40 22 40H18Z" fill="#1976D2"/>
    <path d="M28 18C28 16.8954 28.8954 16 30 16H34C35.1046 16 36 16.8954 36 18V22C36 23.1046 35.1046 24 34 24H30C28.8954 24 28 23.1046 28 22V18Z" fill="#1976D2"/>
    <path d="M30 28C28.8954 28 28 28.8954 28 30V34C28 35.1046 28.8954 36 30 36H34C35.1046 36 36 35.1046 36 34V30C36 28.8954 35.1046 28 34 28H30Z" fill="#1976D2"/>
    <path d="M28 42C28 40.8954 28.8954 40 30 40H34C35.1046 40 36 40.8954 36 42V46C36 47.1046 35.1046 48 34 48H30C28.8954 48 28 47.1046 28 46V42Z" fill="#1976D2"/>
    <path d="M42 16C40.8954 16 40 16.8954 40 18V22C40 23.1046 40.8954 24 42 24H46C47.1046 24 48 23.1046 48 22V18C48 16.8954 47.1046 16 46 16H42Z" fill="#1976D2"/>
    <path d="M40 30C40 28.8954 40.8954 28 42 28H46C47.1046 28 48 28.8954 48 30V34C48 35.1046 47.1046 36 46 36H42C40.8954 36 40 35.1046 40 34V30Z" fill="#1976D2"/>
    <path d="M42 40C40.8954 40 40 40.8954 40 42V46C40 47.1046 40.8954 48 42 48H46C47.1046 48 48 47.1046 48 46V42C48 40.8954 47.1046 40 46 40H42Z" fill="#1976D2"/>
    <rect x="0.5" y="0.5" width="63" height="63" rx="31.5" stroke="#D3D3D3"/>
</svg>

<svg xmlns="http://www.w3.org/2000/svg" width="64" height="64" fill="none" viewBox="0 0 64 64"><path fill="#1976D2" d="M16 18a2 2 0 0 1 2-2h4a2 2 0 0 1 2 2v4a2 2 0 0 1-2 2h-4a2 2 0 0 1-2-2zm0 12a2 2 0 0 1 2-2h4a2 2 0 0 1 2 2v4a2 2 0 0 1-2 2h-4a2 2 0 0 1-2-2zm2 10a2 2 0 0 0-2 2v4a2 2 0 0 0 2 2h4a2 2 0 0 0 2-2v-4a2 2 0 0 0-2-2zm10-22a2 2 0 0 1 2-2h4a2 2 0 0 1 2 2v4a2 2 0 0 1-2 2h-4a2 2 0 0 1-2-2zm2 10a2 2 0 0 0-2 2v4a2 2 0 0 0 2 2h4a2 2 0 0 0 2-2v-4a2 2 0 0 0-2-2zm-2 14a2 2 0 0 1 2-2h4a2 2 0 0 1 2 2v4a2 2 0 0 1-2 2h-4a2 2 0 0 1-2-2zm14-26a2 2 0 0 0-2 2v4a2 2 0 0 0 2 2h4a2 2 0 0 0 2-2v-4a2 2 0 0 0-2-2zm-2 14a2 2 0 0 1 2-2h4a2 2 0 0 1 2 2v4a2 2 0 0 1-2 2h-4a2 2 0 0 1-2-2zm2 10a2 2 0 0 0-2 2v4a2 2 0 0 0 2 2h4a2 2 0 0 0 2-2v-4a2 2 0 0 0-2-2z"/><rect width="63" height="63" x="0.5" y="0.5" stroke="#D3D3D3" rx="31.5"/></svg>
